T: Richie Dwyer's Dream
M: 4/4
L: 1/8
K: Edor
BAGE AGEB, |EFGB ADFA | Be (3eee fgfe |  dBAG FD D2 |
BAGF AGFE | GFED B,A,B,D | EB,GE AGBA | GEEB, E4 :|
edBG FAdA | (3GFE BE eEBE | edBG A2 Bd | egfg e2 (3efe |
edBG ADBA | GEFD EDB,A, | EB,GE AGBA | [1 GEEB, E2 (3Bcd :| [2 GEEB, E2-E2 |]
